X:68
T:Bugle Quick March.#51. JBs.068
S:Jas.Blackshaw MS, 1837, N.Shropshire
A:North Shropshire
Z:T. Weatherall 2006
M:6/8
L:1/8
Q:3/8=120
R:Quickstep
K:C
Gâ€Bugle Soloâ€|cec c2c|ege e2g|cec c2e|GGG G3|!
gag câ€™ba|gcâ€™b câ€™2g|agf ece|d2dd2G|!
â€œsoloâ€cec c2c|ege e2g|cec c2e|GGG G3|!
gag câ€™ba|gcâ€™b agf|ece dBd|c2cc2:|!
|:z|â€soloâ€ece ege|c2cc3|ece ege|G2GG3|!
geg abcâ€™|dâ€™câ€™b abcâ€™|g2câ€™e2g|fef d3|!
â€œsoloâ€ece ege|c2cc3|ece ege|G2GG3|!
geg abcâ€™|dâ€™câ€™b abcâ€™|g2câ€™e2g|fdBc2:|

